X:1
T:Title
%%score { ( 1 3 7 ) | ( 2 4 5 6 ) }
L:1/8
M:4/4
K:D
V:1 treble nm="Grand Piano"
V:3 treble 
V:7 treble 
V:2 bass 
V:4 bass 
V:5 bass 
V:6 bass 
V:1
 z4 z2[Q:1/4=112] D2 | F2 F2 F3 [EG] | [FA]2 [FA]2 [FA]2 [Ad]2 | B2 A2 G2 F2 |[M:3/4] E4 A2 | %5
[M:1/4] [DF]2 |[M:4/4] [EG]2 [EG]2 [EG]3 [FA] | [CGB]2 [CGB]2 [CGB]2 [Bd]2 | c2 B2 A2 G2 | %9
[M:3/4] F2 .F2 z2 |[M:1/4] [DFA]2 |[M:4/4] [Fd]2 [Fd]2 c3 F | B2 B2 A3 A | %13
 G2 [A,EG]2 [A,DF]2 [DE^G]2 |[M:3/4] .A2 z2 z2 |[M:1/4] [A,EG]2 |[M:4/4] F2 F2 G3 G | A2 A2 B3 B | %18
 A2 d2 [Gd]2 [Gc]2 |[M:7/8] [Fd][Ad][df] [fa] [fad']2 z |[M:1/8] [A,A] | %21
[M:4/4] [Fd]A/A/ AA .[Fd]2 z [DFA] | [DGB]2 [DGd]2 [DFA]3 [DFA] | [A,EA]2 [A,EA]2 [EB]2 [^Gd]2 | %24
[M:7/8] [Gc]-[Gc]-[Gc]- [Gc]3 z |[M:1/8] A |[M:4/4] [Fd]A/A/ AA [Fd]A/A/ A[FA] | %27
 [GB]2 [A=c]2 B2 B2 | A2 d2 d2 [Gc]2 |[M:3/4] [Fd]6 |] %30
V:2
 z4 z2 [D,F,]2 | [D,A,D]2 [D,A,D]2 [D,A,D]3 [D,A,] | [D,D]2 [D,D]2 [D,D]2 [F,D]2 | %3
 [G,DG]2 [F,D]2 [E,A,C]2 [D,A,D]2 |[M:3/4] z2 .C2 z2 |[M:1/4] [A,,A,]2 | %6
[M:4/4] [A,,A,]2 [A,,A,]2 [A,,A,]3 [A,,A,] | A,,2 A,,2 A,,2 [A,,A,]2 | %8
 [A,EA]2 [G,CE]2[K:bass] [F,D]2 [E,A,C]2 |[M:3/4] .D2 z z/[K:treble] A/ d2 |[M:1/4][K:bass] D,2 | %11
[M:4/4] [D,A,]2 [D,A,]2 [F,^A,F]3 [F,A,] | [G,B,D]2 [G,DG]2[K:bass] [F,D]3 [F,D] | %13
 [E,A,C]2 C,2 D,2 B,,2 |[M:3/4] z[K:treble] .A .cc/e/ ag |[M:1/4][K:bass] A,,2 | %16
[M:4/4] [D,A,D]2 [D,A,D]2 [E,A,C]3 [E,A,C] | [F,D]2 [F,D]2[K:treble] [G,DG]3 [^G,D=F] | %18
 [A,DF]2 [A,F]2[K:bass] [A,,A,]2 [A,,A,]2 |[M:7/8] z2 A d3 z |[M:1/8] z | %21
[M:4/4] .[D,A,]2 z A, [D,A,][K:treble]A/A/ A[K:bass]D, | G,2 B,,2 D,3 D, | %23
 C,2 C,2 [E,^G,]2 [E,E]2 |[M:7/8] [A,E]2 A,2 A, G,F, |[M:1/8] A, | %26
[M:4/4] .[D,A,]2 z A, .[D,A,]2 z [D,D] | [D,D]2 [F,D]2[K:treble] [G,DG]2 [^G,D=F]2 | %28
 [A,DF]2 [A,DF]2 [A,EG]2[K:bass] [A,,A,]2 |[M:3/4] [D,A,]6 |] %30
V:3
 x8 | x8 | x8 | x8 |[M:3/4] .[A,C]2 z z/ E/- E2 |[M:1/4] x2 |[M:4/4] x8 | x8 | x8 | %9
[M:3/4] z .D z F3 |[M:1/4] x2 |[M:4/4] x8 | x8 | x8 |[M:3/4] [CE]6 |[M:1/4] x2 |[M:4/4] x8 | x8 | %18
 x8 |[M:7/8] x7 |[M:1/8] x |[M:4/4] x8 | x8 | x8 |[M:7/8] z2 E2 E2 z |[M:1/8] x |[M:4/4] x8 | x8 | %28
 x8 |[M:3/4] x6 |] %30
V:4
 x8 | x8 | x8 | x8 |[M:3/4] z .A, z C3 |[M:1/4] x2 |[M:4/4] x8 | x8 | x4[K:bass] x4 | %9
[M:3/4] [D,A,]6[K:treble] |[M:1/4][K:bass] x2 |[M:4/4] x8 | x4[K:bass] x4 | x8 | %14
[M:3/4] z[K:treble] z/ A/- A<A- A2 |[M:1/4][K:bass] x2 |[M:4/4] x8 | x4[K:treble] x4 | %18
 x4[K:bass] x4 |[M:7/8] z F-F- F3 z |[M:1/8] x |[M:4/4] x5[K:treble] x2[K:bass] x | x8 | x8 | %24
[M:7/8] x7 |[M:1/8] x |[M:4/4] x8 | x4[K:treble] x4 | x6[K:bass] x2 |[M:3/4] x6 |] %30
V:5
 x8 | x8 | x8 | x8 |[M:3/4] z z/ A,/- A,<A,- A,2 |[M:1/4] x2 |[M:4/4] x8 | x8 | x4[K:bass] x4 | %9
[M:3/4] x7/2[K:treble] x5/2 |[M:1/4][K:bass] x2 |[M:4/4] x8 | x4[K:bass] x4 | x8 | %14
[M:3/4] A,,6[K:treble] |[M:1/4][K:bass] x2 |[M:4/4] x8 | x4[K:treble] x4 | x4[K:bass] x4 | %19
[M:7/8] [D,A,]-[D,A,]-[D,A,]- [D,A,]3 z |[M:1/8] x |[M:4/4] x5[K:treble] x2[K:bass] x | x8 | x8 | %24
[M:7/8] x7 |[M:1/8] x |[M:4/4] x8 | x4[K:treble] x4 | x6[K:bass] x2 |[M:3/4] x6 |] %30
V:6
 x8 | x8 | x8 | x8 |[M:3/4] A,,6 |[M:1/4] x2 |[M:4/4] x8 | x8 | x4[K:bass] x4 | %9
[M:3/4] x7/2[K:treble] x5/2 |[M:1/4][K:bass] x2 |[M:4/4] x8 | x4[K:bass] x4 | x8 | %14
[M:3/4] x[K:treble] x5 |[M:1/4][K:bass] x2 |[M:4/4] x8 | x4[K:treble] x4 | x4[K:bass] x4 | %19
[M:7/8] x7 |[M:1/8] x |[M:4/4] x5[K:treble] x2[K:bass] x | x8 | x8 |[M:7/8] x7 |[M:1/8] x | %26
[M:4/4] x8 | x4[K:treble] x4 | x6[K:bass] x2 |[M:3/4] x6 |] %30
V:7
 x8 | x8 | x8 | x8 |[M:3/4] x6 |[M:1/4] x2 |[M:4/4] x8 | x8 | x8 |[M:3/4] z z/ D/- D<D- D2 | %10
[M:1/4] x2 |[M:4/4] x8 | x8 | x8 |[M:3/4] x6 |[M:1/4] x2 |[M:4/4] x8 | x8 | x8 |[M:7/8] x7 | %20
[M:1/8] x |[M:4/4] x8 | x8 | x8 |[M:7/8] x7 |[M:1/8] x |[M:4/4] x8 | x8 | x8 |[M:3/4] x6 |] %30

